icon-themes/breeze_svg/cmd/lc_diaeffect.svg

<svg viewBox="0 0 24 24" xmlns="http://www.w3.org/2000/svg"><path d="m3 4v12h18v-12zm1 1h16v10h-16zm8 1-1.333984 2.6660156-2.666016.6679688 2 1.9999996-.6660156 2.666016 2.6660156-1.333984 2.666016 1.333984-.666016-2.666016 2-1.9999996-2.666016-.6679688zm2 0v1h5v-1zm3 2v1h2v-1zm0 3v1h2v-1zm-2 2v1h4v-1zm-5 4v2h-1v1h6v-1h-1v-2h-1v2h-2v-2z" fill="#4d4d4d"/></svg>

<svg xmlns="http://www.w3.org/2000/svg" viewBox="0 0 24 24">
 <path 
     style="fill:#4d4d4d" 
     d="M 3 4 L 3 16 L 21 16 L 21 4 L 3 4 z M 4 5 L 20 5 L 20 15 L 4 15 L 4 5 z M 12 6 L 10.666016 8.6660156 L 8 9.3339844 L 10 11.333984 L 9.3339844 14 L 12 12.666016 L 14.666016 14 L 14 11.333984 L 16 9.3339844 L 13.333984 8.6660156 L 12 6 z M 14 6 L 14 7 L 19 7 L 19 6 L 14 6 z M 17 8 L 17 9 L 19 9 L 19 8 L 17 8 z M 17 11 L 17 12 L 19 12 L 19 11 L 17 11 z M 15 13 L 15 14 L 19 14 L 19 13 L 15 13 z M 10 17 L 10 19 L 9 19 L 9 20 L 15 20 L 15 19 L 14 19 L 14 17 L 13 17 L 13 19 L 11 19 L 11 17 L 10 17 z "
     />
 </svg>
